public/assets/plaat.svg

<svg width="725" height="725" viewBox="0 0 725 725" fill="none" xmlns="http://www.w3.org/2000/svg">
<g clip-path="url(#clip0)">
<path d="M362.214 724.31C562.118 724.31 724.173 562.255 724.173 362.35C724.173 162.445 562.118 0.390625 362.214 0.390625C162.309 0.390625 0.253906 162.445 0.253906 362.35C0.253906 562.255 162.309 724.31 362.214 724.31Z" fill="#2C1E25"/>
<path d="M362.213 362.35C362.213 362.35 587.802 349.916 703.665 423.147C703.665 423.147 661.034 636.948 420.508 706.304C420.508 706.385 328.06 476.517 362.213 362.35Z" fill="#5C404E"/>
<path d="M362.213 362.351C362.213 362.351 136.624 374.785 20.7617 301.553C20.7617 301.553 63.3927 87.7526 303.919 18.3965C303.999 18.3965 396.447 248.265 362.213 362.351Z" fill="#5C404E"/>
<path d="M362.215 689.511C543.302 689.511 690.102 542.711 690.102 361.623C690.102 180.536 543.302 33.7363 362.215 33.7363C181.128 33.7363 34.3281 180.536 34.3281 361.623C34.3281 542.711 181.128 689.511 362.215 689.511Z" stroke="#2C1E25" stroke-miterlimit="10"/>
<path d="M362.215 681.437C538.843 681.437 682.029 538.251 682.029 361.624C682.029 184.996 538.843 41.8105 362.215 41.8105C185.588 41.8105 42.4023 184.996 42.4023 361.624C42.4023 538.251 185.588 681.437 362.215 681.437Z" stroke="#2C1E25" stroke-miterlimit="10"/>
<path d="M362.215 671.183C533.18 671.183 671.774 532.588 671.774 361.624C671.774 190.659 533.18 52.0645 362.215 52.0645C191.251 52.0645 52.6562 190.659 52.6562 361.624C52.6562 532.588 191.251 671.183 362.215 671.183Z" stroke="#2C1E25" stroke-miterlimit="10"/>
<path d="M362.215 662.382C528.32 662.382 662.974 527.728 662.974 361.624C662.974 195.519 528.32 60.8652 362.215 60.8652C196.111 60.8652 61.457 195.519 61.457 361.624C61.457 527.728 196.111 662.382 362.215 662.382Z" stroke="#2C1E25" stroke-miterlimit="10"/>
<path d="M362.212 651.079C522.074 651.079 651.667 521.486 651.667 361.625C651.667 201.763 522.074 72.1699 362.212 72.1699C202.351 72.1699 72.7578 201.763 72.7578 361.625C72.7578 521.486 202.351 651.079 362.212 651.079Z" stroke="#2C1E25" stroke-miterlimit="10"/>
<path d="M362.212 639.371C515.608 639.371 639.959 515.02 639.959 361.624C639.959 208.229 515.608 83.877 362.212 83.877C208.817 83.877 84.4648 208.229 84.4648 361.624C84.4648 515.02 208.817 639.371 362.212 639.371Z" stroke="#2C1E25" stroke-miterlimit="10"/>
<path d="M362.214 624.596C507.449 624.596 625.186 506.859 625.186 361.624C625.186 216.389 507.449 98.6523 362.214 98.6523C216.979 98.6523 99.2422 216.389 99.2422 361.624C99.2422 506.859 216.979 624.596 362.214 624.596Z" stroke="#2C1E25" stroke-miterlimit="10"/>
<path d="M362.212 612.001C500.491 612.001 612.589 499.903 612.589 361.624C612.589 223.345 500.491 111.248 362.212 111.248C223.933 111.248 111.836 223.345 111.836 361.624C111.836 499.903 223.933 612.001 362.212 612.001Z" stroke="#2C1E25" stroke-miterlimit="10"/>
<path d="M362.215 596.417C491.888 596.417 597.009 491.296 597.009 361.623C597.009 231.951 491.888 126.83 362.215 126.83C232.542 126.83 127.422 231.951 127.422 361.623C127.422 491.296 232.542 596.417 362.215 596.417Z" stroke="#2C1E25" stroke-miterlimit="10"/>
<path d="M362.212 574.86C479.979 574.86 575.448 479.391 575.448 361.624C575.448 243.857 479.979 148.389 362.212 148.389C244.445 148.389 148.977 243.857 148.977 361.624C148.977 479.391 244.445 574.86 362.212 574.86Z" stroke="#2C1E25" stroke-miterlimit="10"/>
<path d="M362.212 546.762C464.461 546.762 547.35 463.873 547.35 361.624C547.35 259.375 464.461 176.486 362.212 176.486C259.963 176.486 177.074 259.375 177.074 361.624C177.074 463.873 259.963 546.762 362.212 546.762Z" stroke="#2C1E25" stroke-miterlimit="10"/>
<path d="M362.212 508.168C443.146 508.168 508.756 442.558 508.756 361.624C508.756 280.69 443.146 215.08 362.212 215.08C281.278 215.08 215.668 280.69 215.668 361.624C215.668 442.558 281.278 508.168 362.212 508.168Z" stroke="#2C1E25" stroke-miterlimit="10"/>
<path d="M362.213 476.84C425.845 476.84 477.429 425.255 477.429 361.623C477.429 297.991 425.845 246.406 362.213 246.406C298.58 246.406 246.996 297.991 246.996 361.623C246.996 425.255 298.58 476.84 362.213 476.84Z" stroke="#2C1E25" stroke-miterlimit="10"/>
<path d="M362.212 696.051C546.911 696.051 696.639 546.323 696.639 361.624C696.639 176.925 546.911 27.1973 362.212 27.1973C177.513 27.1973 27.7852 176.925 27.7852 361.624C27.7852 546.323 177.513 696.051 362.212 696.051Z" stroke="#2C1E25" stroke-miterlimit="10"/>
<path d="M362.214 474.58C424.196 474.58 474.443 424.333 474.443 362.35C474.443 300.368 424.196 250.121 362.214 250.121C300.231 250.121 249.984 300.368 249.984 362.35C249.984 424.333 300.231 474.58 362.214 474.58Z" fill="#F87980"/>
<path d="M362.457 372.362C368.388 372.362 373.196 367.554 373.196 361.623C373.196 355.693 368.388 350.885 362.457 350.885C356.527 350.885 351.719 355.693 351.719 361.623C351.719 367.554 356.527 372.362 362.457 372.362Z" fill="#5C404E"/>
<path d="M390.313 467.394C328.304 467.394 278.083 417.174 278.083 355.165C278.083 307.932 307.231 267.562 348.57 251.01C293.02 257.792 250.066 305.025 250.066 362.351C250.066 424.36 300.287 474.58 362.296 474.58C377.071 474.58 391.12 471.754 404.039 466.587C399.517 467.152 394.915 467.394 390.313 467.394Z" fill="#A75155"/>
</g>
<defs>
<clipPath id="clip0">
<rect width="724" height="724" fill="white" transform="translate(0.253906 0.390625)"/>
</clipPath>
</defs>
</svg>

<svg width="725" height="725" fill="none" xmlns="http://www.w3.org/2000/svg"><g clip-path="url(#clip0)"><path d="M362.214 724.31c199.904 0 361.959-162.055 361.959-361.96C724.173 162.445 562.118.39 362.214.39 162.309.39.254 162.446.254 362.35c0 199.905 162.055 361.96 361.96 361.96z" fill="#2C1E25"/><path d="M362.213 362.35s225.589-12.434 341.452 60.797c0 0-42.631 213.801-283.157 283.157 0 .081-92.448-229.787-58.295-343.954z" fill="#5C404E"/><path d="M362.213 362.351s-225.589 12.434-341.451-60.798c0 0 42.63-213.8 283.157-283.156.08 0 92.528 229.868 58.294 343.954z" fill="#5C404E"/><path d="M362.215 689.511c181.087 0 327.887-146.8 327.887-327.888 0-181.087-146.8-327.887-327.887-327.887S34.328 180.536 34.328 361.623c0 181.088 146.8 327.888 327.887 327.888z" stroke="#2C1E25" stroke-miterlimit="10"/><path d="M362.215 681.437c176.628 0 319.814-143.186 319.814-319.813 0-176.628-143.186-319.814-319.814-319.814-176.627 0-319.813 143.186-319.813 319.814 0 176.627 143.186 319.813 319.813 319.813z" stroke="#2C1E25" stroke-miterlimit="10"/><path d="M362.215 671.183c170.965 0 309.559-138.595 309.559-309.559 0-170.965-138.594-309.56-309.559-309.56-170.964 0-309.559 138.595-309.559 309.56 0 170.964 138.595 309.559 309.559 309.559z" stroke="#2C1E25" stroke-miterlimit="10"/><path d="M362.215 662.382c166.105 0 300.759-134.654 300.759-300.758 0-166.105-134.654-300.759-300.759-300.759-166.104 0-300.758 134.654-300.758 300.759 0 166.104 134.654 300.758 300.758 300.758z" stroke="#2C1E25" stroke-miterlimit="10"/><path d="M362.212 651.079c159.862 0 289.455-129.593 289.455-289.454 0-159.862-129.593-289.455-289.455-289.455-159.861 0-289.454 129.593-289.454 289.455 0 159.861 129.593 289.454 289.454 289.454z" stroke="#2C1E25" stroke-miterlimit="10"/><path d="M362.212 639.371c153.396 0 277.747-124.351 277.747-277.747 0-153.395-124.351-277.747-277.747-277.747-153.395 0-277.747 124.352-277.747 277.747 0 153.396 124.352 277.747 277.747 277.747z" stroke="#2C1E25" stroke-miterlimit="10"/><path d="M362.214 624.596c145.235 0 262.972-117.737 262.972-262.972 0-145.235-117.737-262.972-262.972-262.972-145.235 0-262.972 117.737-262.972 262.972 0 145.235 117.737 262.972 262.972 262.972z" stroke="#2C1E25" stroke-miterlimit="10"/><path d="M362.212 612.001c138.279 0 250.377-112.098 250.377-250.377S500.491 111.248 362.212 111.248 111.836 223.345 111.836 361.624s112.097 250.377 250.376 250.377z" stroke="#2C1E25" stroke-miterlimit="10"/><path d="M362.215 596.417c129.673 0 234.794-105.121 234.794-234.794 0-129.672-105.121-234.793-234.794-234.793S127.422 231.951 127.422 361.623c0 129.673 105.12 234.794 234.793 234.794z" stroke="#2C1E25" stroke-miterlimit="10"/><path d="M362.212 574.86c117.767 0 213.236-95.469 213.236-213.236s-95.469-213.235-213.236-213.235-213.235 95.468-213.235 213.235c0 117.767 95.468 213.236 213.235 213.236z" stroke="#2C1E25" stroke-miterlimit="10"/><path d="M362.212 546.762c102.249 0 185.138-82.889 185.138-185.138 0-102.249-82.889-185.138-185.138-185.138-102.249 0-185.138 82.889-185.138 185.138 0 102.249 82.889 185.138 185.138 185.138z" stroke="#2C1E25" stroke-miterlimit="10"/><path d="M362.212 508.168c80.934 0 146.544-65.61 146.544-146.544 0-80.934-65.61-146.544-146.544-146.544-80.934 0-146.544 65.61-146.544 146.544 0 80.934 65.61 146.544 146.544 146.544z" stroke="#2C1E25" stroke-miterlimit="10"/><path d="M362.213 476.84c63.632 0 115.216-51.585 115.216-115.217s-51.584-115.217-115.216-115.217c-63.633 0-115.217 51.585-115.217 115.217S298.58 476.84 362.213 476.84z" stroke="#2C1E25" stroke-miterlimit="10"/><path d="M362.212 696.051c184.699 0 334.427-149.728 334.427-334.427S546.911 27.197 362.212 27.197 27.785 176.925 27.785 361.624s149.728 334.427 334.427 334.427z" stroke="#2C1E25" stroke-miterlimit="10"/><path d="M362.214 474.58c61.982 0 112.229-50.247 112.229-112.23 0-61.982-50.247-112.229-112.229-112.229-61.983 0-112.23 50.247-112.23 112.229 0 61.983 50.247 112.23 112.23 112.23z" fill="#F87980"/><path d="M362.457 372.362c5.931 0 10.739-4.808 10.739-10.739 0-5.93-4.808-10.738-10.739-10.738-5.93 0-10.738 4.808-10.738 10.738 0 5.931 4.808 10.739 10.738 10.739z" fill="#5C404E"/><path d="M390.313 467.394c-62.009 0-112.23-50.22-112.23-112.229 0-47.233 29.148-87.603 70.487-104.155-55.55 6.782-98.504 54.015-98.504 111.341 0 62.009 50.221 112.229 112.23 112.229 14.775 0 28.824-2.826 41.743-7.993-4.522.565-9.124.807-13.726.807z" fill="#A75155"/></g><defs><clipPath id="clip0"><path fill="#fff" transform="translate(.254 .39)" d="M0 0h724v724H0z"/></clipPath></defs></svg>
